src/assets/rock_icon.svg

<svg width="32" height="32" viewBox="0 0 32 32" fill="none" xmlns="http://www.w3.org/2000/svg">
<path d="M16.1006 1.36553C16.682 1.27658 17.2582 1.37018 17.7725 1.66241L17.9899 1.80043L18.3949 2.08559L18.7998 2.37204C19.1491 2.6184 19.4647 2.8981 19.7373 3.21449L20.3193 3.89027C20.411 3.99662 20.5643 4.13517 20.8089 4.29392L21.292 4.60642L21.7751 4.92022C22.1167 5.14194 22.4396 5.47049 22.6188 5.93064C22.7975 6.38974 22.7815 6.84837 22.6826 7.24054L22.4287 8.24705L23.1449 9.06475C23.5388 9.51394 23.9134 10.187 23.7699 11.001C24.0268 11.0258 24.2839 11.0511 24.5407 11.0778L25.5407 11.1819C25.851 11.2142 26.2627 11.3114 26.6253 11.6051C27.0283 11.9317 27.2253 12.3821 27.2634 12.8252L27.3285 13.5843C27.3506 13.8424 27.3745 14.1402 27.4001 14.4762L27.4391 14.9762L27.4769 15.4762C27.5172 16.0062 27.441 16.5273 27.2634 17.0257L26.9066 18.0257C26.8419 18.2075 26.8185 18.3709 26.8246 18.5231L26.8662 19.5231C26.875 19.7386 26.9113 19.9613 26.9808 20.1911L27.1332 20.6911L27.2842 21.1911C27.4759 21.8245 27.439 22.4701 27.1957 23.0752L26.792 24.0752C26.7112 24.2761 26.6745 24.4585 26.6683 24.626L26.6319 25.626C26.6205 25.9368 26.6173 26.2488 26.6214 26.5595L26.6345 27.5596C26.6384 27.8598 26.5939 28.2692 26.361 28.6572C26.098 29.0952 25.6823 29.3616 25.2321 29.4567L24.529 29.6051C23.9445 29.7284 23.381 29.602 22.9183 29.4215L22.4183 29.2262L21.9183 29.0322C21.7992 28.9858 21.7131 28.9819 21.6344 28.9957L20.6344 29.1728C20.341 29.2246 20.0461 29.2896 19.7503 29.3694L19.2503 29.5049L18.7503 29.639C18.3413 29.7493 17.9274 29.8225 17.5107 29.8564L17.0107 29.8981L16.5107 29.9385C16.0286 29.9777 15.5488 29.9364 15.0784 29.8187L14.0784 29.5687C13.9004 29.5242 13.7322 29.5143 13.5654 29.5348L12.5654 29.6572C12.138 29.7097 11.7086 29.7162 11.2803 29.6767L10.7803 29.6312L10.2802 29.5843C9.98162 29.5568 9.68261 29.5414 9.38441 29.5374L8.38441 29.5244C8.09604 29.5206 7.80738 29.5305 7.51852 29.5556L7.01852 29.5999L6.51852 29.6429C6.07837 29.6811 5.5857 29.5859 5.16175 29.2536C4.76394 28.9414 4.5608 28.5248 4.45471 28.1728L4.11096 27.0322C3.86938 26.2296 4.03061 25.4399 4.51331 24.7861L4.8818 24.2861L5.14482 23.9319L5.0107 23.6559L4.77112 23.1559C4.43822 22.4634 4.43206 21.7091 4.7594 21.0114L4.99508 20.5114L5.22945 20.0114C5.28675 19.8894 5.28888 19.8147 5.28154 19.7614L5.21123 19.2614L5.14221 18.7614C5.09897 18.4507 5.04673 18.139 4.98727 17.8278L4.79716 16.8278C4.72523 16.4513 4.6716 16.0733 4.63831 15.695L4.59534 15.195L4.55107 14.695C4.52414 14.3887 4.48735 14.0812 4.44169 13.7744L4.29325 12.7744C4.26603 12.5915 4.23936 12.3666 4.24638 12.1572C4.24934 12.07 4.2599 11.8531 4.35445 11.6155C4.4527 11.3693 4.81825 10.7445 5.6292 10.7444H5.70081C5.77376 10.7269 5.88497 10.6972 6.04065 10.6533L7.04066 10.372C7.78774 10.1615 8.50677 10.3198 9.11097 10.6989L10.0797 11.3056L10.081 11.3043L10.4547 10.4385C10.5464 10.2262 10.5752 10.0915 10.5823 10.0231C10.583 10.0168 10.5834 10.0107 10.5836 10.0062L10.3649 9.50225L10.1266 8.95147C9.96066 8.56799 9.8676 8.08754 10.0042 7.57517C10.1407 7.06374 10.4602 6.69365 10.792 6.44366L11.6396 5.80434L11.5329 4.71189C11.495 4.32515 11.5349 3.88837 11.7412 3.4684C11.9526 3.03837 12.2874 2.73081 12.6605 2.5309L13.1514 2.26788L13.6422 2.00616C14.0929 1.76499 14.5713 1.59864 15.0732 1.52178L16.1006 1.36553ZM15.9027 17.4111C14.7983 17.4113 13.9027 18.3067 13.9027 19.4111C13.9028 20.1934 14.3535 20.869 15.0081 21.1976L13.9027 23.4111H17.9027L16.7959 21.1976C17.4512 20.8693 17.9025 20.1939 17.9027 19.4111C17.9026 18.3066 17.0072 17.4111 15.9027 17.4111ZM15.9899 4.07908L15.4769 4.1585C15.2944 4.18648 15.1027 4.24798 14.9001 4.35642L14.4092 4.61944L14.2126 4.72361L14.3076 5.67673C14.3918 6.53619 14.0616 7.32002 13.3597 7.84861L12.7529 8.30434L12.8128 8.44236L13.0498 8.99314C13.3615 9.71324 13.2684 10.4619 13.0472 11.1142L13.6045 11.2002C13.7835 11.2276 13.961 11.2231 14.1435 11.1872L15.1435 10.9892C15.6711 10.885 16.2031 10.9 16.7243 11.0296L17.2243 11.1533L17.7243 11.2783C17.7826 11.2928 17.8386 11.2938 17.9274 11.2601L18.9274 10.8799C19.2152 10.7702 19.5119 10.6977 19.8141 10.665L18.861 8.62335L19.917 9.22491C19.7233 8.75812 19.6807 8.24128 19.8141 7.71189L19.9561 7.15069L20.0055 6.95017L19.8402 6.8434L19.3584 6.5309C18.9596 6.27216 18.5963 5.97522 18.2998 5.63116L18.0081 5.29262L17.7165 4.95538C17.601 4.82144 17.4524 4.68467 17.262 4.55043L16.4847 4.00356L15.9899 4.07908Z" fill="#DDDDDD"/>
</svg>

<svg xmlns="http://www.w3.org/2000/svg" width="32" height="32" fill="none" viewBox="0 0 32 32"><path fill="#ddd" d="M16.1 1.366a2.56 2.56 0 0 1 1.672.296l.218.138.405.286.405.286q.527.368.937.842l.582.676c.092.107.245.245.49.404l.483.312.483.314c.342.222.665.55.844 1.01s.163.918.064 1.31l-.254 1.007.716.818c.394.449.768 1.122.625 1.936q.386.037.77.077l1 .104c.311.032.723.13 1.085.423.403.327.6.777.638 1.22l.065.76q.035.386.072.891l.04.5.037.5c.04.53-.036 1.051-.214 1.55l-.356 1a1.3 1.3 0 0 0-.082.497l.041 1q.012.323.115.668l.152.5.151.5a2.8 2.8 0 0 1-.088 1.884l-.404 1c-.08.201-.118.384-.124.551l-.036 1q-.018.466-.01.933l.012 1c.004.3-.04.71-.273 1.098a1.72 1.72 0 0 1-1.129.8l-.703.148c-.584.123-1.148-.003-1.61-.183l-.5-.196-.5-.194a.5.5 0 0 0-.285-.036l-1 .177q-.44.078-.884.196l-.5.136-.5.134q-.614.166-1.24.217l-.5.042-.5.04a4.4 4.4 0 0 1-1.432-.12l-1-.25a1.4 1.4 0 0 0-.513-.033l-1 .122a6 6 0 0 1-1.285.02l-.5-.046-.5-.047a11 11 0 0 0-.896-.047l-1-.013a9 9 0 0 0-.865.032l-.5.044-.5.043a1.9 1.9 0 0 1-1.357-.39c-.398-.312-.601-.728-.707-1.08l-.344-1.14c-.242-.803-.08-1.593.402-2.247l.369-.5.263-.354-.134-.276-.24-.5a2.45 2.45 0 0 1-.012-2.145l.236-.5.234-.5a.43.43 0 0 0 .053-.25l-.07-.5-.07-.5q-.065-.466-.155-.933l-.19-1a11 11 0 0 1-.159-1.133l-.043-.5-.044-.5a16 16 0 0 0-.11-.92l-.148-1a3.5 3.5 0 0 1-.047-.618c.003-.087.014-.304.108-.541.099-.247.464-.871 1.275-.872h.072q.108-.026.34-.09l1-.282c.747-.21 1.466-.052 2.07.327l.969.607.001-.002.374-.866a1.5 1.5 0 0 0 .129-.432l-.22-.504-.237-.55a2.1 2.1 0 0 1-.123-1.377c.137-.511.456-.881.788-1.131l.848-.64-.107-1.092a2.3 2.3 0 0 1 .208-1.244c.212-.43.546-.737.92-.937l.49-.263.491-.262c.45-.241.93-.407 1.431-.484zm-.197 16.045a1.999 1.999 0 0 0-.895 3.787l-1.105 2.213h4l-1.107-2.213a1.998 1.998 0 0 0-.893-3.787M15.99 4.08l-.513.08a1.8 1.8 0 0 0-.577.197l-.49.263-.197.105.095.953c.084.86-.246 1.643-.948 2.172l-.607.455.06.138.237.551c.311.72.218 1.469-.003 2.121l.557.086c.18.028.357.023.54-.013l1-.198a3.6 3.6 0 0 1 1.58.04l.5.124.5.125a.3.3 0 0 0 .203-.018l1-.38q.433-.165.887-.215l-.953-2.042 1.056.602a2.38 2.38 0 0 1-.103-1.513l.142-.561.05-.2-.166-.108-.482-.312a5 5 0 0 1-1.058-.9l-.292-.338-.291-.338a2.5 2.5 0 0 0-.455-.405l-.777-.546z"/></svg>
